X:1
T:Title
%%score { ( 1 4 ) | ( 2 3 ) }
L:1/8
M:9/8
K:F
V:1 treble nm="Grand Piano"
V:4 treble 
V:2 bass 
V:3 bass 
V:1
 z3 z3[Q:1/4=114] [CFA]2 [B,CG] | [A,CF]3- [A,CF]2 [CEG] [CFA]2 [CGB] | [FAc]3 [CFA]3 [Fd]2 [CFc] | %3
 [CFc]3- [CFc]2 [CFA] [CG]2 [CF] |[M:3/4] [CEG]6 |[M:3/8] [CFA]2 [B,CG] | %6
[M:9/8] [A,CF]3- [A,CF]2 [CEG] [CFA]2 [CGB] | [FAc]3 [CFA]3 [CGc]2 [=B,FG] | %8
 [EG]3- [EG]2 [Ge] [Fd]2 [F=B] |[M:3/4] [Ec]6 |[M:3/8] ABc |[M:9/8] z3 z3 .[Df]3 | c3 A3 c2 d | %13
 [Ec]3 [EG]3 [FA]2 [GB] |[M:3/4] A6 |[M:3/8] F2 F |[M:9/8] F3- F2 [EG] [FA]2 [GB] | %17
 [Ac]3 [FA]3 [Fd]2 [Fd] | [Fc]3- [Fc]2 [CF] [B,EG]2 [CEA] |[M:3/4] [A,F]6 |] %20
V:2
 z3 z3 F,2 F, | F,3- F,2 C, F,2 F, | F,3 F,3 B,2 A, | A,3- A,2 F, A,,2 A,, |[M:3/4] C,6 | %5
[M:3/8] F,2 F, |[M:9/8] F,3- F,2 C, F,2 F, | F,3 F,3 E,2 D, | [C,C]3- [C,C]2 [C,C] [G,=B,]2 [G,D] | %9
[M:3/4] [C,C]6 |[M:3/8] [F,F]2 z |[M:9/8] [B,,B,]3 B,,3 z C[D,B,] | %12
 [F,A,F]3 [F,CF]3 [F,A,F]2 [F,A,F] | [C,G,]3 [C,C]3 [C,C]2 [C,C] |[M:3/4] [F,CF]6 | %15
[M:3/8] [F,A,C]2 [F,A,C] |[M:9/8] [F,A,C]3- [F,A,C]2 [C,C] [F,C]2 [F,C] | %17
 [F,F]3 [F,C]3 [B,,B,]2 [D,B,] | [F,A,]3- [F,A,]2 A,, C,2 C, |[M:3/4] F,,6 |] %20
V:3
 x9 | x9 | x9 | x9 |[M:3/4] x6 |[M:3/8] x3 |[M:9/8] x9 | x9 | x9 |[M:3/4] x6 |[M:3/8] z G,[F,A,F] | %11
[M:9/8] z3 z3 .B,,3 | x9 | x9 |[M:3/4] x6 |[M:3/8] x3 |[M:9/8] x9 | x9 | x9 |[M:3/4] x6 |] %20
V:4
 x9 | x9 | x9 | x9 |[M:3/4] x6 |[M:3/8] x3 |[M:9/8] x9 | x9 | x9 |[M:3/4] x6 |[M:3/8] x3 | %11
[M:9/8] [Fd]3 [DFB]3 F-[Fe][Fd] | x9 | x9 |[M:3/4] x6 |[M:3/8] x3 |[M:9/8] x9 | x9 | x9 | %19
[M:3/4] x6 |] %20

